X: 2981
T: Bastard In F Sharp Minor
R: polka
M: 2/4
K: Amajor
|:F2 cF|Ac c2|cd cF|Ac c2|cd cF|cB GA|Bc c2|BA GA:|
|:F2 AF|AB B2|1 Fc BG|AG FE:|2 Fc BG|A2 G/F/ E||
|:F2 AF|AB B2|1 Fc BG|Ac GA:|2 cB AG|F2 ed||
|:cF F/G/F/E/|F2 ed|c2 c2|Bc c2|ce dc|
[1 B2 B2|cB AG|F2 ed:|2 BA GA|cB AG||
|:F2 AF|AB B2|1 Fc BG|AG FE:|2 Fc BG|A2 G/F/ E||

